extensions/images/svgs/u_arrow-up.svg

<svg fill="none" height="13" viewBox="0 0 13 13" width="13" xmlns="http://www.w3.org/2000/svg"><path d="m9.59294 6.1154-2.70834-2.70833c-.05151-.04932-.11226-.08797-.17875-.11375-.13187-.05418-.27979-.05418-.41166 0-.06649.02578-.12724.06443-.17875.11375l-2.70834 2.70833c-.0505.05051-.09056.11046-.1179.17645-.02733.06599-.0414.13671-.0414.20813 0 .14425.0573.28259.1593.38459s.24034.1593.38459.1593c.14424 0 .28258-.0573.38458-.1593l1.78208-1.7875v4.11125c0 .14366.05707.28143.15865.38301.10159.10159.23936.15865.38302.15865s.28143-.05706.38302-.15865c.10158-.10158.15865-.23935.15865-.38301v-4.11125l1.78208 1.7875c.05035.05077.11026.09106.17627.11856s.13681.04166.20831.04166c.07151 0 .14231-.01416.20831-.04166.06601-.0275.12592-.06779.17628-.11856.05076-.05036.09106-.11027.11856-.17627.0275-.06601.04166-.13681.04166-.20832 0-.0715-.01416-.1423-.04166-.20831s-.0678-.12591-.11856-.17627z" fill="#353536"/></svg>

<svg width="13" height="13" viewBox="0 0 13 13" fill="none" xmlns="http://www.w3.org/2000/svg">
<path d="M9.59294 6.1154L6.8846 3.40707C6.83309 3.35775 6.77234 3.3191 6.70585 3.29332C6.57398 3.23914 6.42606 3.23914 6.29419 3.29332C6.2277 3.3191 6.16695 3.35775 6.11544 3.40707L3.4071 6.1154C3.3566 6.16591 3.31654 6.22586 3.2892 6.29185C3.26187 6.35784 3.2478 6.42856 3.2478 6.49998C3.2478 6.64423 3.3051 6.78257 3.4071 6.88457C3.5091 6.98657 3.64744 7.04387 3.79169 7.04387C3.93593 7.04387 4.07427 6.98657 4.17627 6.88457L5.95835 5.09707V9.20832C5.95835 9.35198 6.01542 9.48975 6.117 9.59133C6.21859 9.69292 6.35636 9.74998 6.50002 9.74998C6.64368 9.74998 6.78145 9.69292 6.88304 9.59133C6.98462 9.48975 7.04169 9.35198 7.04169 9.20832V5.09707L8.82377 6.88457C8.87412 6.93534 8.93403 6.97563 9.00004 7.00313C9.06605 7.03063 9.13685 7.04479 9.20835 7.04479C9.27986 7.04479 9.35066 7.03063 9.41666 7.00313C9.48267 6.97563 9.54258 6.93534 9.59294 6.88457C9.6437 6.83421 9.684 6.7743 9.7115 6.7083C9.739 6.64229 9.75316 6.57149 9.75316 6.49998C9.75316 6.42848 9.739 6.35768 9.7115 6.29167C9.684 6.22566 9.6437 6.16576 9.59294 6.1154Z" fill="#353536"/>
</svg>
